assets/images/partners/partner-3.svg

<svg width="145" height="32" viewBox="0 0 145 32" fill="none" xmlns="http://www.w3.org/2000/svg">
<path d="M89.7834 13.3962L81.9604 5.43078V5.37557C81.4845 4.91659 80.8547 4.66653 80.2038 4.67812C79.5529 4.68971 78.9318 4.96205 78.4715 5.4377C78.0112 5.91335 77.7477 6.55514 77.7365 7.22772C77.7252 7.90029 77.9672 8.55108 78.4114 9.04284L78.4648 9.09016L86.1733 17.166H89.8215V13.3962H89.7834Z" fill="#9C9C9C"/>
<path d="M91.1208 22.2766L98.9286 30.2421L98.982 30.2973C99.4526 30.7826 100.091 31.0548 100.755 31.054C101.42 31.0533 102.058 30.7797 102.527 30.2933C102.997 29.807 103.26 29.1479 103.259 28.4609C103.259 27.7739 102.994 27.1153 102.523 26.63L102.478 26.5827L94.769 18.5068H91.1208V22.2766Z" fill="#9C9C9C"/>
<path d="M94.7461 17.166L102.455 9.09016L102.508 9.04284C102.952 8.55108 103.194 7.90029 103.183 7.22772C103.172 6.55514 102.908 5.91335 102.448 5.4377C101.988 4.96205 101.367 4.68971 100.716 4.67812C100.065 4.66653 99.435 4.91659 98.9591 5.37557L98.9133 5.43078L91.1208 13.3962V17.166H94.7461Z" fill="#9C9C9C"/>
<path d="M86.137 18.5069L78.4361 26.5749L78.3827 26.6222C77.912 27.1127 77.6493 27.7763 77.6521 28.467C77.6535 28.809 77.7201 29.1474 77.8481 29.4628C77.9761 29.7782 78.1629 30.0645 78.3979 30.3052C78.633 30.546 78.9116 30.7366 79.2179 30.8662C79.5242 30.9957 79.8522 31.0616 80.1832 31.0601C80.8516 31.0572 81.4915 30.78 81.9622 30.2895L82.008 30.2343L89.8233 22.2767V18.499H86.1675L86.137 18.5069Z" fill="#9C9C9C"/>
<path d="M20.9722 27.1268L20.0487 13.4673C19.9419 11.89 19.8732 10.565 19.8732 9.20063C19.5832 10.6754 19.3695 11.5666 18.9421 13.1439L15.0267 27.1268H10.7985L7.27245 13.7196C6.9519 12.4657 6.50923 10.6675 6.27263 9.19274C6.27263 10.707 6.20394 12.2133 6.09709 13.7906L5.24229 27.1268H0.296631L2.58629 1.56641H8.95916L12.1952 14.3663C12.5492 15.6984 12.8345 17.0489 13.05 18.4122C13.2862 17.0115 13.5919 15.6242 13.9659 14.2559L17.3088 1.56641H23.6435L25.8492 27.1268H20.9722ZM42.6324 28.0811C41.5508 27.6462 40.6459 26.8419 40.0679 25.8019C39.727 26.162 39.3596 26.4942 38.9689 26.7956C37.877 27.5215 36.5952 27.8822 35.2978 27.8287C31.2451 27.8287 29.0394 25.6915 29.0394 21.9454C29.0394 17.5289 31.9931 15.4705 37.7935 15.4705H38.8621V14.6818C38.8621 12.584 38.4652 11.8821 36.725 11.8821C35.1986 11.8821 33.4127 12.6707 31.4588 14.0193L29.4287 10.4861C30.3632 9.86581 31.3521 9.3377 32.3823 8.90882C33.9511 8.18621 35.6486 7.81014 37.3661 7.8047C40.419 7.8047 42.5255 8.9798 43.2353 11.0776C43.5586 12.1722 43.6676 13.3224 43.5558 14.461L43.449 20.7703C43.449 22.8287 43.5558 23.712 45.1586 24.9659L42.6324 28.0811ZM38.572 18.8854C35.2673 18.8854 34.1225 19.5163 34.1225 21.7561C34.0919 22.063 34.123 22.3731 34.2138 22.6669C34.3046 22.9608 34.4532 23.2321 34.6503 23.4639C34.8473 23.6957 35.0886 23.8829 35.3589 24.0138C35.6293 24.1447 35.9229 24.2164 36.2213 24.2246C36.7016 24.2006 37.1717 24.0732 37.6015 23.8504C38.0313 23.6277 38.4112 23.3146 38.717 22.9312L38.7857 18.8854H38.572ZM53.7219 27.5685C51.3025 27.5685 49.3792 26.4644 48.8144 24.8082C48.5051 23.8763 48.3957 22.8859 48.4939 21.9059V11.6534H46.6774V8.30156H48.4939C48.4554 6.81386 48.5141 5.32518 48.6694 3.84563L53.5082 2.59955C53.3219 4.49414 53.2276 6.3972 53.2258 8.30156H57.4922L56.2863 11.6849H53.2335V21.1488C53.2335 23.5148 53.6609 24.1615 55.2941 24.1615C55.8774 24.1219 56.4526 23.9999 57.0038 23.7987L57.6067 26.7404C56.3776 27.2795 55.0571 27.561 53.7219 27.5685ZM68.6276 12.5997C68.2056 12.3492 67.725 12.2237 67.2385 12.237C66.6694 12.2584 66.1122 12.4112 65.6078 12.6842C65.1033 12.9571 64.6643 13.3432 64.323 13.8143V27.1268H59.5529V14.5477C59.6213 12.682 59.3944 10.8173 58.8813 9.02712L63.1477 7.85202C63.6035 8.67096 63.8651 9.58988 63.9109 10.5335C64.9412 9.0981 66.4066 7.85202 68.1849 7.85202C68.8009 7.82969 69.4125 7.96801 69.9632 8.25424L68.6276 12.5997ZM73.6419 6.16429C73.256 6.16222 72.8743 6.08164 72.5186 5.92714C72.1629 5.77263 71.8401 5.54724 71.5686 5.26383C71.2972 4.98041 71.0824 4.64452 70.9366 4.27534C70.7908 3.90616 70.7168 3.51092 70.7188 3.11218C70.7268 2.29845 71.0458 1.52101 71.6063 0.949291C72.1667 0.377575 72.9231 0.0579453 73.7106 0.0600691C74.0961 0.0610777 74.4775 0.141059 74.8329 0.295386C75.1882 0.449713 75.5104 0.675322 75.7808 0.95916C76.0513 1.243 76.2645 1.57943 76.4083 1.94899C76.5521 2.31855 76.6235 2.71391 76.6185 3.11218C76.6195 3.51528 76.543 3.91459 76.3935 4.28691C76.244 4.65924 76.0245 4.99718 75.7475 5.28112C75.4706 5.56505 75.1419 5.78933 74.7805 5.94094C74.419 6.09255 74.032 6.16847 73.6419 6.16429ZM71.2759 27.1268V8.62491L76.0461 7.83625V27.1268H71.2759ZM107.224 6.16429C106.838 6.16223 106.457 6.08159 106.101 5.92699C105.746 5.77239 105.424 5.54687 105.153 5.26335C104.882 4.97983 104.668 4.64388 104.523 4.27474C104.378 3.90561 104.305 3.51054 104.308 3.11218C104.314 2.29917 104.631 1.52171 105.191 0.949778C105.75 0.377842 106.505 0.0579604 107.292 0.0600691C107.678 0.0610777 108.059 0.141059 108.414 0.295386C108.77 0.449713 109.092 0.675322 109.362 0.95916C109.633 1.243 109.846 1.57943 109.99 1.94899C110.134 2.31855 110.205 2.71391 110.2 3.11218C110.201 3.51528 110.125 3.91459 109.975 4.28691C109.826 4.65924 109.606 4.99718 109.329 5.28112C109.052 5.56505 108.724 5.78933 108.362 5.94094C108.001 6.09255 107.614 6.16847 107.224 6.16429ZM104.858 27.1268V8.62491L109.62 7.83625V27.1268H104.858ZM125.693 28.0811C124.612 27.6462 123.707 26.8419 123.129 25.8019C122.79 26.1639 122.422 26.4962 122.03 26.7956C120.938 27.5215 119.656 27.8822 118.359 27.8287C114.306 27.8287 112.1 25.6915 112.1 21.9454C112.1 17.5289 115.054 15.4705 120.855 15.4705H121.923V14.6818C121.923 12.584 121.526 11.8821 119.786 11.8821C118.26 11.8821 116.474 12.6707 114.52 14.0193L112.49 10.5413C113.424 9.92101 114.413 9.39291 115.443 8.96403C117.012 8.24142 118.71 7.86535 120.427 7.85991C123.48 7.85991 125.587 9.03501 126.296 11.1328C126.62 12.2274 126.729 13.3776 126.617 14.5162L126.51 20.8255C126.51 22.8839 126.617 23.7672 128.22 25.0211L125.693 28.0811ZM121.648 18.8854C118.344 18.8854 117.206 19.5163 117.206 21.7561C117.175 22.0632 117.205 22.3738 117.295 22.6682C117.386 22.9625 117.534 23.2344 117.731 23.4664C117.929 23.6984 118.171 23.8856 118.441 24.0161C118.712 24.1466 119.006 24.2176 119.305 24.2246C119.782 24.1974 120.247 24.0684 120.673 23.8458C121.099 23.6232 121.475 23.3117 121.778 22.9312L121.847 18.8854H121.648ZM140.179 27.1268V14.879C140.179 12.7496 139.821 12.1187 138.577 12.1187C137.318 12.2773 136.149 12.8755 135.264 13.8143V27.1268H130.494V13.4673C130.517 11.9687 130.3 10.4764 129.853 9.05078L134.089 7.8047C134.51 8.51891 134.745 9.3344 134.768 10.1707C135.44 9.66274 136.141 9.19661 136.867 8.77475C137.887 8.26034 139.006 7.99074 140.141 7.98609C142.171 7.98609 143.957 9.08233 144.522 10.707C144.791 11.5724 144.91 12.4802 144.873 13.3884V27.1268H140.179Z" fill="#9C9C9C"/>
</svg>

<svg xmlns="http://www.w3.org/2000/svg" width="145" height="32" fill="#9c9c9c" xmlns:v="https://vecta.io/nano"><path d="M89.783 13.396L81.96 5.431v-.055c-.476-.459-1.106-.709-1.757-.697a2.47 2.47 0 0 0-1.732.76 2.64 2.64 0 0 0-.735 1.79c-.011.673.231 1.323.675 1.815l.053.047 7.709 8.076h3.648v-3.77h-.038zm1.338 8.881l7.808 7.966.053.055c.471.485 1.109.758 1.773.757s1.303-.274 1.772-.761a2.63 2.63 0 0 0 .732-1.832 2.63 2.63 0 0 0-.736-1.831l-.045-.047-7.709-8.076h-3.648v3.77zm3.625-5.111l7.709-8.076.053-.047c.444-.492.686-1.143.675-1.815a2.64 2.64 0 0 0-.735-1.79 2.47 2.47 0 0 0-1.732-.76c-.651-.012-1.281.238-1.757.697l-.046.055-7.793 7.965v3.77h3.625zm-8.609 1.341l-7.701 8.068-.053.047a2.65 2.65 0 0 0-.731 1.845 2.68 2.68 0 0 0 .196.996 2.61 2.61 0 0 0 .55.842 2.52 2.52 0 0 0 .82.561 2.45 2.45 0 0 0 .965.194 2.48 2.48 0 0 0 1.779-.771l.046-.055 7.815-7.958v-3.778h-3.656l-.031.008zm-65.165 8.62l-.924-13.659-.175-4.267-.931 3.943-3.915 13.983h-4.228L7.272 13.72l-1-4.527-.176 4.598-.855 13.336H.297l2.29-25.56H8.96l3.236 12.8a40.18 40.18 0 0 1 .855 4.046l.916-4.156L17.31 1.568h6.335l2.206 25.56h-4.877zm21.66.954c-1.082-.435-1.986-1.239-2.564-2.279-.341.36-.708.692-1.099.994-1.092.726-2.374 1.087-3.671 1.033-4.053 0-6.258-2.137-6.258-5.883 0-4.416 2.954-6.475 8.754-6.475h1.069v-.789c0-2.098-.397-2.8-2.137-2.8-1.526 0-3.312.789-5.266 2.137l-2.03-3.533a17.51 17.51 0 0 1 2.954-1.577c1.569-.723 3.266-1.099 4.984-1.104 3.053 0 5.159 1.175 5.869 3.273.323 1.095.432 2.245.32 3.383l-.107 6.309c0 2.058.107 2.942 1.71 4.196l-2.526 3.115zm-4.06-9.196c-3.305 0-4.449.631-4.449 2.871a2.31 2.31 0 0 0 .091.911 2.26 2.26 0 0 0 .437.797 2.17 2.17 0 0 0 .709.55 2.11 2.11 0 0 0 .862.211 3.36 3.36 0 0 0 1.38-.374 3.47 3.47 0 0 0 1.115-.919l.069-4.046h-.214zm15.15 8.683c-2.419 0-4.343-1.104-4.907-2.76a7.01 7.01 0 0 1-.321-2.902V11.653h-1.816V8.302h1.816a34.21 34.21 0 0 1 .176-4.456L53.508 2.6a58.69 58.69 0 0 0-.282 5.702h4.266l-1.206 3.383h-3.053v9.464c0 2.366.427 3.013 2.061 3.013a6.21 6.21 0 0 0 1.71-.363l.603 2.942a9.8 9.8 0 0 1-3.885.828zM68.628 12.6a2.58 2.58 0 0 0-1.389-.363 3.72 3.72 0 0 0-1.631.447 3.85 3.85 0 0 0-1.285 1.13v13.313h-4.77V14.548a17.69 17.69 0 0 0-.672-5.521l4.266-1.175c.456.819.717 1.738.763 2.681 1.03-1.435 2.496-2.681 4.274-2.681.616-.022 1.228.116 1.778.402L68.628 12.6zm5.014-6.435a2.86 2.86 0 0 1-1.123-.237c-.355-.154-.678-.38-.95-.663s-.486-.619-.632-.988a3.12 3.12 0 0 1-.218-1.163c.008-.814.327-1.591.888-2.163S72.923.058 73.711.06c.386.001.767.081 1.122.235s.678.38.948.664.484.62.627.99a3.1 3.1 0 0 1 .21 1.163 3.13 3.13 0 0 1-.225 1.175 3.05 3.05 0 0 1-.646.994 2.94 2.94 0 0 1-.967.66c-.362.152-.749.228-1.139.223zm-2.366 20.963V8.625l4.77-.789v19.291h-4.77zm35.948-20.963c-.386-.002-.767-.083-1.123-.237a2.93 2.93 0 0 1-.948-.664c-.271-.284-.485-.619-.63-.989a3.12 3.12 0 0 1-.215-1.163c.006-.813.323-1.59.883-2.162s1.314-.892 2.101-.89a2.83 2.83 0 0 1 1.122.235 2.9 2.9 0 0 1 .948.664 3.02 3.02 0 0 1 .628.99 3.1 3.1 0 0 1 .21 1.163 3.13 3.13 0 0 1-.225 1.175 3.05 3.05 0 0 1-.646.994 2.94 2.94 0 0 1-.967.66 2.86 2.86 0 0 1-1.138.223zm-2.366 20.963V8.625l4.762-.789v19.291h-4.762zm20.835.954c-1.081-.435-1.986-1.239-2.564-2.279a8.94 8.94 0 0 1-1.099.994c-1.092.726-2.374 1.087-3.671 1.033-4.053 0-6.259-2.137-6.259-5.883 0-4.416 2.954-6.475 8.755-6.475h1.068v-.789c0-2.098-.397-2.8-2.137-2.8-1.526 0-3.312.789-5.266 2.137l-2.03-3.478a17.52 17.52 0 0 1 2.953-1.577 12 12 0 0 1 4.984-1.104c3.053 0 5.16 1.175 5.869 3.273a8.87 8.87 0 0 1 .321 3.383l-.107 6.309c0 2.058.107 2.942 1.71 4.196l-2.527 3.06zm-4.045-9.196c-3.304 0-4.442.631-4.442 2.871-.031.307-.001.618.089.912s.239.566.436.798a2.18 2.18 0 0 0 .71.55 2.09 2.09 0 0 0 .864.208c.477-.027.942-.156 1.368-.379s.802-.534 1.105-.915l.069-4.046h-.199zm18.531 8.241V14.879c0-2.129-.358-2.76-1.602-2.76a5.5 5.5 0 0 0-3.313 1.696v13.313h-4.77V13.467a14.05 14.05 0 0 0-.641-4.417l4.236-1.246a4.93 4.93 0 0 1 .679 2.366 20.87 20.87 0 0 1 2.099-1.396c1.02-.514 2.139-.784 3.274-.789 2.03 0 3.816 1.096 4.381 2.721a7.95 7.95 0 0 1 .351 2.681v13.738h-4.694z"/></svg>
